UI/POI/SVG/mountain_outline_24px.svg

<svg width="24" height="24" viewBox="0 0 24 24" fill="none" xmlns="http://www.w3.org/2000/svg">
<path d="M11.05 6.5L13.05 10.75L14.86 14.58L15.86 12.58L18.86 19.02H5.15L11.05 6.52V6.5ZM11.05 3.02C10.8785 3.02199 10.7112 3.07293 10.5677 3.16683C10.4242 3.26073 10.3105 3.39367 10.24 3.55L2 21H22L16.36 9.05C16.317 8.93913 16.2414 8.84385 16.1432 8.77667C16.0451 8.70949 15.9289 8.67354 15.81 8.67354C15.6911 8.67354 15.5749 8.70949 15.4768 8.77667C15.3786 8.84385 15.303 8.93913 15.26 9.05L14.86 9.89L11.86 3.53C11.7895 3.37367 11.6758 3.24073 11.5323 3.14683C11.3888 3.05293 11.2215 3.00199 11.05 3V3.02Z" fill="#0F1621"/>
</svg>

<svg xmlns="http://www.w3.org/2000/svg" width="24" height="24" viewBox="0 0 24 24"><rect width="24" height="24" style="fill:none"/><path d="M11.05,6.5l2,4.25,1.81,3.83,1-2,3,6.44H5.15l5.9-12.5m0-3.5a.9.9,0,0,0-.81.53L2,21H22L16.36,9.05a.59.59,0,0,0-1.1,0l-.4.84-3-6.36A.9.9,0,0,0,11.05,3Z" style="fill:#231f20"/></svg>
